logos/groupon.svg

<svg xmlns="http://www.w3.org/2000/svg" xmlns:xlink="http://www.w3.org/1999/xlink" viewBox="0 0 2406 1059">
 <path fill="#bcbec0" opacity=".2" stroke="#636466" stroke-width="6" d="m3 3h2400v815l-2223 238z"/>
 <linearGradient id="i" gradientUnits="userSpaceOnUse" x1="1135" x2="1313" y1="-364" y2="683">
  <stop stop-color="#545757"/>
  <stop stop-color="#1f2323" offset="1"/>
 </linearGradient>
 <path fill="url(#i)" d="m2337 758-2102 225-153-914 2255 1z"/>
 <path fill="#fff" opacity=".3" d="m116 643-108-637 855 1-859-4z"/>
 <linearGradient id="t" gradientUnits="userSpaceOnUse" x2="0" y1="297" y2="585">
  <stop stop-color="#fff"/>
  <stop stop-color="#dcddde" offset="1"/>
 </linearGradient>
 <g fill="url(#t)" stroke="#fff" stroke-width="2">
  <path d="m397 597c-44 0-82-16-113-48-28-31-43-69-43-113 0-42 16-80 46-110s68-45 111-45c66 0 121 39 146 103h-84c-19-20-39-29-63-29-45 0-81 36-81 81 0 47 37 87 81 87 30 0 55-15 70-42l1-1h-88v-59h172c1 6 1 13 1 19 0 34-9 63-26 89-29 43-78 68-130 68z"/>
  <path d="m707 591l-60-101v101h-73v-304h101c33 0 57 3 77 16 27 19 40 48 40 85 0 50-25 86-68 98h-1l74 105h-90zm-60-163h16c39 0 56-11 56-38 0-25-16-37-50-37h-22v75z"/>
  <path id="o" d="m963 283c-88 0-158 71-158 158s70 158 158 158 158-71 158-158-71-158-158-158m0 75c46 0 83 37 83 83s-37 84-83 84-84-38-84-84 38-83 84-83z"/>
  <path d="m1251 596c-70 0-111-43-111-118v-191h74v187c0 37 12 54 37 54 27 0 40-18 40-54v-187h73v191c0 72-44 118-113 118z"/>
  <path d="m1387 591v-304h101c34 0 57 3 77 16 27 19 41 48 41 86s-18 71-48 90c-19 11-43 13-75 13h-23v99h-73zm74-163h15c40 0 56-11 56-38 0-25-15-37-50-37h-21v75z"/>
  <use xlink:href="#o" transform="translate(812)"/>
  <path d="m2136 591l-116-173v173h-73v-304h66l114 172v-172h73v304z"/>
 </g>
</svg>

<svg xmlns="http://www.w3.org/2000/svg" xmlns:xlink="http://www.w3.org/1999/xlink" viewBox="0 0 2406 1059">
 <path fill="#bcbec0" opacity=".2" stroke="#636466" stroke-width="6" d="M
3
3
H
2403
V
818
L
180
1056
Z"/>
 <linearGradient id="i" gradientUnits="userSpaceOnUse" x1="1135" x2="1313" y1="-364" y2="683">
  <stop stop-color="#545757"/>
  <stop stop-color="#1f2323" offset="1"/>
 </linearGradient>
 <path fill="url(#i)" d="M
2337
758
235
983
82
69
2337
70
Z"/>
 <path fill="#fff" opacity=".3" d="M
116
643
8
6
863
7
4
3
Z"/>
 <linearGradient id="t" gradientUnits="userSpaceOnUse" x2="0" y1="297" y2="585">
  <stop stop-color="#fff"/>
  <stop stop-color="#dcddde" offset="1"/>
 </linearGradient>
 <g fill="url(#t)" stroke="#fff" stroke-width="2">
  <path d="M
397
597
C
353
597
315
581
284
549
C
256
518
241
480
241
436
C
241
394
257
356
287
326
C
317
296
355
281
398
281
C
464
281
519
320
544
384
H
460
C
441
364
421
355
397
355
C
352
355
316
391
316
436
C
316
483
353
523
397
523
C
427
523
452
508
467
481
L
468
480
H
380
V
421
H
552
C
553
427
553
434
553
440
C
553
474
544
503
527
529
C
498
572
449
597
397
597
Z"/>
  <path d="M
707
591
L
647
490
V
591
H
574
V
287
H
675
C
708
287
732
290
752
303
C
779
322
792
351
792
388
C
792
438
767
474
724
486
L
723
486
L
797
591
H
707
Z M
647
428
H
663
C
702
428
719
417
719
390
C
719
365
703
353
669
353
H
647
V
428
Z"/>
  <path id="o" d="M
963
283
C
875
283
805
354
805
441
S
875
599
963
599
S
1121
528
1121
441
S
1050
283
963
283
M
963
358
C
1009
358
1046
395
1046
441
S
1009
525
963
525
S
879
487
879
441
S
917
358
963
358
Z"/>
  <path d="M
1251
596
C
1181
596
1140
553
1140
478
V
287
H
1214
V
474
C
1214
511
1226
528
1251
528
C
1278
528
1291
510
1291
474
V
287
H
1364
V
478
C
1364
550
1320
596
1251
596
Z"/>
  <path d="M
1387
591
V
287
H
1488
C
1522
287
1545
290
1565
303
C
1592
322
1606
351
1606
389
C
1606
427
1588
460
1558
479
C
1539
490
1515
492
1483
492
H
1460
V
591
H
1387
Z M
1461
428
H
1476
C
1516
428
1532
417
1532
390
C
1532
365
1517
353
1482
353
H
1461
V
428
Z"/>
  <use xlink:href="#o" transform="translate(
812
)"/>
  <path d="M
2136
591
L
2020
418
V
591
H
1947
V
287
H
2013
L
2127
459
V
287
H
2200
V
591
Z"/>
 </g>
</svg>
